!!!PDT:	1923
!!!LANG: Non-Tone
!!!LING_GROUP: Siouan
!!!REG: Dakotas
!!!COM: Anon.
!!!OTL: Song of Triumph
!!!ODT: <1918//
!!!MPN: Wopite [Scattered Corn, Mrs. Holding Eagle]
!!!MLC: Fort Berthold Reservation, North Dakota, United States of America
!! Song was recorded during either the summer of 1912, 1915, or 1918.
!!!AGN: monody
!!!SOCIAL_FUNCTION: Mandan and Hidatsa War Songs
!!!AMT: irregular
!!!RWG: Transcribed pitches, durations, and meters are only approximate.
!! Drum Tempo: MM69
!! Drum-rhythm: (8 8) (8 8) (8 8) (8 8)
**kern
*ICvox
*Ifemale
*clefG2
*k[b-e-a-d-]
*M2/4
*MM69
=1-
8.b-
16b-
4b-
=2
16b-
8.dd-
16b-
8.b-
*M3/4
=3
16b-
16a-
16f
16f
(12b-
12a-
12f)
4f;
*M2/4
=4
16b-
16a-
16f
16b-
(12b-
12a-
12f)
=5
4f
4f
*M3/4
=6
(12a-
12f
12f)
(12f
12c
12f
4f;
*M2/4
=7
16c
8.c
8c
8c
=8
2c
=9
8.b-
16b-
8.b-
16b-
=10
16b-
8.dd-
16b-
8.b-
*M3/4
=11
(16b-
16a-
16f)
16f
(12b-
12a-)
12f
4f;
*M2/4
=12
(16b-
16a-
16f)
16b-
(12b-
12a-
12f)
=13
4f
4f
*M3/4
=14
(12a-
12f
12f)
(12f
12c
12f)
4f;
*M2/4
=15
16c
8.c
8c
8c
=16
2c
==
*-
!!!CNT: Mandan
!!!TXO: Mandan
!!!OCY: United States
!!!OCL: Frances Densmore
!!!YOR: Frances Densmore, "Mandan and Hidatsa Music",
!!!YOR: Bulletin 80, page 159, No. 91
!!!PPR: Smithsonian Institution, Bureau of American Ethnology
!!!PPR: Government Printing Office
!!!PDT: 1923
!!!PPP: Washington, DC, United States of America
!!!YEC: Electronic Copyright 2000 David Huron
!!!YER: August 2000
!!!YEN: United States of America
!!!ENC: David Huron
!!!RDT: August 18, 2000
!!!EEV: Release 1.0
!!!AIN: tom, vox
